X: 1
T: John Derek Evans
C: Muriel Johnstone
R: strathspey
B: The Whiteaddr Collection, 1993
D: Dancing Fingers Vol.III
N:
N: Muriel Johnstone and Bill Zobel   Tel. 0890 818884
N: Scotscores, Muse Cottage, Allanton, Duns, Beerwiskshire, TD11 3JZ, Scotland
Z: 1997 by John Chambers <jc:trillian.mit.edu>
M: C
L: 1/8
K: G
GA \
| "G"B>G D<B, "C"C>D E<G | "D7"F>G A>c "G"B<d d<g | B>G D<B, "C"C>D E>G | "D7"(3FED (3cBA "G"G2 GA |
| "G7"B>G D<B, "C"C>D E<G | "D7"F>G A>c "G7"B<d d<g | "C"e>c G>E "G"(3DGB (3dfg | "C"e<g "D7"B>A "G"G2 ||
zG, \
| "C"E2 "D"D>B, "G"G,<G GF/G/ | "D"A2 G>A "G"B<d d>D | "C"E2 "D"D>B, "Em"G,<G G>B | "A7"(3A^ce (3gfe "D"f<d d2 |
| "C"E2 "D"D>B, "Em"G,<G GF/G/ | "D7"A2 G>A "G7"B<d d<g | "C"e>c G>E "G"(3DGB (3dfg | "C"e<g "D7"B>A "G"G2 |]
